img/itunes.svg

<svg width="191" height="63" viewBox="0 0 191 63" xmlns="http://www.w3.org/2000/svg" xmlns:sketch="http://www.bohemiancoding.com/sketch/ns"><title>iTunes</title><desc>Created with Sketch.</desc><g sketch:type="MSLayerGroup" fill="none"><path d="M190.735 53.463c0 5.019-4.254 9.089-9.501 9.089h-171c-5.246 0-9.499-4.07-9.499-9.089v-43.822c0-5.02 4.253-9.089 9.499-9.089h171c5.247 0 9.501 4.069 9.501 9.089v43.822" fill="#1A1919" sketch:type="MSShapeGroup"/><path d="M43.267 30.564c-.041-4.546 3.722-6.758 3.894-6.861-2.131-3.107-5.434-3.532-6.594-3.565-2.775-.292-5.465 1.66-6.879 1.66-1.442 0-3.619-1.631-5.963-1.583-3.018.047-5.842 1.794-7.391 4.507-3.195 5.533-.812 13.665 2.249 18.137 1.532 2.19 3.322 4.636 5.664 4.549 2.292-.095 3.148-1.461 5.915-1.461 2.741 0 3.544 1.461 5.933 1.406 2.46-.04 4.009-2.2 5.487-4.41 1.77-2.511 2.481-4.984 2.509-5.11-.057-.02-4.777-1.82-4.824-7.269" fill="#fff" sketch:type="MSShapeGroup"/><path d="M38.754 17.196c1.232-1.542 2.075-3.639 1.841-5.767-1.784.079-4.015 1.233-5.3 2.742-1.136 1.328-2.152 3.507-1.89 5.554 2.004.149 4.062-1.011 5.349-2.529" fill="#fff" sketch:type="MSShapeGroup"/><path d="M71.999 19.404l-.87 2.865h-1.905l3.24-10.11h2.355l3.285 10.11h-1.98l-.915-2.865h-3.21zm2.895-1.395l-.795-2.49c-.195-.615-.36-1.305-.51-1.89h-.03c-.15.585-.3 1.29-.48 1.89l-.78 2.49h2.595z" fill="#FFFEFD" sketch:type="MSShapeGroup"/><path d="M80.204 14.964l1.185 3.704c.21.645.361 1.23.495 1.831h.045c.135-.601.3-1.17.495-1.831l1.155-3.704h1.95l-2.79 7.305h-1.815l-2.714-7.305h1.994" fill="#FFFEFD" sketch:type="MSShapeGroup"/><path d="M90.674 22.269l-.119-.811h-.046c-.449.571-1.215.976-2.159.976-1.47 0-2.295-1.065-2.295-2.175 0-1.845 1.634-2.775 4.335-2.76v-.12c0-.48-.196-1.275-1.485-1.275-.72 0-1.47.225-1.966.54l-.359-1.2c.54-.33 1.484-.645 2.64-.645 2.34 0 3.014 1.485 3.014 3.075v2.64c0 .66.031 1.304.105 1.755h-1.665zm-.239-3.57c-1.306-.031-2.55.255-2.55 1.364 0 .721.465 1.051 1.05 1.051.734 0 1.275-.48 1.44-1.005.044-.135.06-.285.06-.405v-1.005z" fill="#FFFEFD" sketch:type="MSShapeGroup"/><path d="M96.15 12.924c0 .555-.405.99-1.05.99-.615 0-1.02-.435-1.02-.99 0-.57.42-1.005 1.035-1.005.63 0 1.02.435 1.035 1.005zm-1.965 2.04h1.86v7.305h-1.86v-7.305z" fill="#FFFEFD" sketch:type="MSShapeGroup"/><path d="M98.024 11.619h1.86v10.65h-1.86v-10.65z" fill="#FFFEFD" sketch:type="MSShapeGroup"/><path d="M105.989 22.269l-.119-.811h-.046c-.449.571-1.215.976-2.159.976-1.47 0-2.295-1.065-2.295-2.175 0-1.845 1.634-2.775 4.335-2.76v-.12c0-.48-.196-1.275-1.485-1.275-.72 0-1.47.225-1.966.54l-.359-1.2c.54-.33 1.484-.645 2.64-.645 2.34 0 3.014 1.485 3.014 3.075v2.64c0 .66.031 1.304.105 1.755h-1.665zm-.239-3.57c-1.306-.031-2.55.255-2.55 1.364 0 .721.465 1.051 1.05 1.051.734 0 1.274-.48 1.439-1.005.045-.135.061-.285.061-.405v-1.005z" fill="#FFFEFD" sketch:type="MSShapeGroup"/><path d="M109.44 22.269c.03-.496.06-1.306.06-2.055v-8.595h1.845v4.35h.03c.45-.705 1.245-1.17 2.339-1.17 1.786 0 3.06 1.485 3.045 3.705 0 2.624-1.664 3.93-3.315 3.93-.944 0-1.784-.36-2.309-1.26h-.031l-.089 1.095h-1.575zm1.905-3.015c0 .15.015.3.045.434.195.736.839 1.291 1.634 1.291 1.156 0 1.86-.93 1.86-2.4 0-1.29-.614-2.34-1.844-2.34-.75 0-1.425.54-1.635 1.35-.03.135-.06.3-.06.48v1.185z" fill="#FFFEFD" sketch:type="MSShapeGroup"/><path d="M118.274 11.619h1.86v10.65h-1.86v-10.65z" fill="#FFFEFD" sketch:type="MSShapeGroup"/><path d="M123.435 19.134c.044 1.32 1.08 1.889 2.25 1.889.855 0 1.469-.119 2.025-.329l.269 1.275c-.629.255-1.5.45-2.549.45-2.37 0-3.765-1.456-3.765-3.69 0-2.025 1.23-3.93 3.569-3.93 2.37 0 3.15 1.95 3.15 3.555 0 .345-.03.615-.06.78h-4.889zm3.21-1.29c.014-.675-.286-1.785-1.516-1.785-1.139 0-1.619 1.035-1.694 1.785h3.21z" fill="#FFFEFD" sketch:type="MSShapeGroup"/><path d="M139.319 18.549c0 2.684-1.89 3.885-3.75 3.885-2.07 0-3.66-1.425-3.66-3.766 0-2.399 1.575-3.869 3.78-3.869 2.175 0 3.63 1.53 3.63 3.75zm-5.505.075c0 1.41.69 2.475 1.815 2.475 1.05 0 1.785-1.036 1.785-2.505 0-1.14-.51-2.445-1.77-2.445-1.305 0-1.83 1.26-1.83 2.475z" fill="#FFFEFD" sketch:type="MSShapeGroup"/><path d="M140.834 17.139c0-.84-.015-1.545-.06-2.175h1.62l.09 1.095h.045c.315-.57 1.11-1.26 2.325-1.26 1.275 0 2.595.825 2.595 3.135v4.335h-1.845v-4.125c0-1.05-.39-1.845-1.395-1.845-.735 0-1.245.525-1.44 1.08-.06.165-.075.39-.075.6v4.29h-1.86v-5.13" fill="#FFFEFD" sketch:type="MSShapeGroup"/><path d="M72.473 29.419c0 1.082-.79 1.93-2.048 1.93-1.199 0-1.99-.848-1.99-1.93 0-1.112.82-1.96 2.019-1.96 1.229 0 1.989.848 2.019 1.96zm-3.832 3.978h3.627v14.245h-3.627v-14.245z" fill="#FFFEFD" sketch:type="MSShapeGroup"/><path d="M80.049 30.94h-5.616v-3.013h14.889v3.013h-5.675v16.702h-3.598v-16.702" fill="#FFFEFD" sketch:type="MSShapeGroup"/><path d="M102.78 43.372c0 1.696.058 3.1.117 4.27h-3.159l-.176-2.164h-.059c-.614 1.024-2.018 2.486-4.563 2.486-2.603 0-4.972-1.55-4.972-6.201v-8.366h3.597v7.751c0 2.37.761 3.891 2.662 3.891 1.434 0 2.37-1.024 2.75-1.931.117-.321.205-.702.205-1.111v-8.6h3.598v9.975" fill="#FFFEFD" sketch:type="MSShapeGroup"/><path d="M106.672 37.638c0-1.638-.029-3.012-.117-4.241h3.159l.176 2.135h.088c.614-1.112 2.164-2.457 4.534-2.457 2.486 0 5.06 1.609 5.06 6.114v8.453h-3.598v-8.044c0-2.048-.761-3.598-2.72-3.598-1.434 0-2.428 1.024-2.808 2.106-.117.322-.147.761-.147 1.17v8.366h-3.627v-10.004" fill="#FFFEFD" sketch:type="MSShapeGroup"/><path d="M125.951 41.529c.088 2.573 2.106 3.685 4.388 3.685 1.667 0 2.866-.234 3.949-.643l.526 2.486c-1.229.497-2.925.878-4.973.878-4.621 0-7.342-2.838-7.342-7.196 0-3.949 2.399-7.664 6.962-7.664 4.622 0 6.143 3.803 6.143 6.932 0 .673-.059 1.2-.117 1.522h-9.536zm6.26-2.516c.029-1.316-.556-3.481-2.955-3.481-2.223 0-3.159 2.018-3.305 3.481h6.26z" fill="#FFFEFD" sketch:type="MSShapeGroup"/><path d="M138.326 44.337c.82.497 2.37 1.023 3.657 1.023 1.579 0 2.281-.643 2.281-1.579 0-.966-.585-1.463-2.34-2.077-2.778-.965-3.948-2.486-3.92-4.154 0-2.515 2.078-4.475 5.383-4.475 1.579 0 2.954.409 3.773.848l-.702 2.545c-.614-.351-1.755-.819-3.013-.819-1.287 0-1.989.614-1.989 1.492 0 .907.673 1.345 2.486 1.989 2.575.936 3.774 2.252 3.803 4.358 0 2.575-2.018 4.447-5.791 4.447-1.726 0-3.277-.41-4.329-.995l.701-2.603" fill="#FFFEFD" sketch:type="MSShapeGroup"/></g></svg>

<?xml version="1.0" encoding="UTF-8" standalone="no"?>
<svg width="191px" height="63px" viewBox="0 0 191 63" version="1.1" xmlns="http://www.w3.org/2000/svg" xmlns:xlink="http://www.w3.org/1999/xlink" xmlns:sketch="http://www.bohemiancoding.com/sketch/ns">
    <!-- Generator: Sketch 3.2.2 (9983) - http://www.bohemiancoding.com/sketch -->
    <title>iTunes</title>
    <desc>Created with Sketch.</desc>
    <defs></defs>
    <g id="Page-1" stroke="none" stroke-width="1" fill="none" fill-rule="evenodd" sketch:type="MSPage">
        <g id="iTunes" sketch:type="MSLayerGroup">
            <path d="M190.735,53.4628 C190.735,58.4819385 186.480897,62.552 181.233804,62.552 L10.2342024,62.552 C4.98810637,62.552 0.735,58.4819385 0.735,53.4628 L0.735,9.6412 C0.735,4.62110769 4.98810637,0.552 10.2342024,0.552 L181.233804,0.552 C186.480897,0.552 190.735,4.62110769 190.735,9.6412 L190.735,53.4628" id="Fill-1" fill="#1A1919" sketch:type="MSShapeGroup"></path>
            <path d="M43.267,30.564 C43.226,26.018 46.989,23.806 47.161,23.703 C45.03,20.596 41.727,20.171 40.567,20.138 C37.792,19.846 35.102,21.798 33.688,21.798 C32.246,21.798 30.069,20.167 27.725,20.215 C24.707,20.262 21.883,22.009 20.334,24.722 C17.139,30.255 19.522,38.387 22.583,42.859 C24.115,45.049 25.905,47.495 28.247,47.408 C30.539,47.313 31.395,45.947 34.162,45.947 C36.903,45.947 37.706,47.408 40.095,47.353 C42.555,47.313 44.104,45.153 45.582,42.943 C47.352,40.432 48.063,37.959 48.091,37.833 C48.034,37.813 43.314,36.013 43.267,30.564" id="Fill-2" fill="#FFFFFF" sketch:type="MSShapeGroup"></path>
            <path d="M38.754,17.196 C39.986,15.654 40.829,13.557 40.595,11.429 C38.811,11.508 36.58,12.662 35.295,14.171 C34.159,15.499 33.143,17.678 33.405,19.725 C35.409,19.874 37.467,18.714 38.754,17.196" id="Fill-3" fill="#FFFFFF" sketch:type="MSShapeGroup"></path>
            <path d="M71.999,19.404 L71.129,22.269 L69.224,22.269 L72.464,12.159 L74.819,12.159 L78.104,22.269 L76.124,22.269 L75.209,19.404 L71.999,19.404 L71.999,19.404 Z M74.894,18.009 L74.099,15.519 C73.904,14.904 73.739,14.214 73.589,13.629 L73.559,13.629 C73.409,14.214 73.259,14.919 73.079,15.519 L72.299,18.009 L74.894,18.009 L74.894,18.009 Z" id="Fill-4" fill="#FFFEFD" sketch:type="MSShapeGroup"></path>
            <path d="M80.204,14.964 L81.389,18.668 C81.599,19.313 81.75,19.898 81.884,20.499 L81.929,20.499 C82.064,19.898 82.229,19.329 82.424,18.668 L83.579,14.964 L85.529,14.964 L82.739,22.269 L80.924,22.269 L78.21,14.964 L80.204,14.964" id="Fill-5" fill="#FFFEFD" sketch:type="MSShapeGroup"></path>
            <path d="M90.674,22.269 L90.555,21.458 L90.509,21.458 C90.06,22.029 89.294,22.434 88.35,22.434 C86.88,22.434 86.055,21.369 86.055,20.259 C86.055,18.414 87.689,17.484 90.39,17.499 L90.39,17.379 C90.39,16.899 90.194,16.104 88.905,16.104 C88.185,16.104 87.435,16.329 86.939,16.644 L86.58,15.444 C87.12,15.114 88.064,14.799 89.22,14.799 C91.56,14.799 92.234,16.284 92.234,17.874 L92.234,20.514 C92.234,21.174 92.265,21.818 92.339,22.269 L90.674,22.269 L90.674,22.269 Z M90.435,18.699 C89.129,18.668 87.885,18.954 87.885,20.063 C87.885,20.784 88.35,21.114 88.935,21.114 C89.669,21.114 90.21,20.634 90.375,20.109 C90.419,19.974 90.435,19.824 90.435,19.704 L90.435,18.699 L90.435,18.699 Z" id="Fill-6" fill="#FFFEFD" sketch:type="MSShapeGroup"></path>
            <path d="M96.15,12.924 C96.15,13.479 95.745,13.914 95.1,13.914 C94.485,13.914 94.08,13.479 94.08,12.924 C94.08,12.354 94.5,11.919 95.115,11.919 C95.745,11.919 96.135,12.354 96.15,12.924 L96.15,12.924 Z M94.185,14.964 L96.045,14.964 L96.045,22.269 L94.185,22.269 L94.185,14.964 Z" id="Fill-7" fill="#FFFEFD" sketch:type="MSShapeGroup"></path>
            <path d="M98.024,11.619 L99.884,11.619 L99.884,22.269 L98.024,22.269 L98.024,11.619 Z" id="Fill-8" fill="#FFFEFD" sketch:type="MSShapeGroup"></path>
            <path d="M105.989,22.269 L105.87,21.458 L105.824,21.458 C105.375,22.029 104.609,22.434 103.665,22.434 C102.195,22.434 101.37,21.369 101.37,20.259 C101.37,18.414 103.004,17.484 105.705,17.499 L105.705,17.379 C105.705,16.899 105.509,16.104 104.22,16.104 C103.5,16.104 102.75,16.329 102.254,16.644 L101.895,15.444 C102.435,15.114 103.379,14.799 104.535,14.799 C106.875,14.799 107.549,16.284 107.549,17.874 L107.549,20.514 C107.549,21.174 107.58,21.818 107.654,22.269 L105.989,22.269 L105.989,22.269 Z M105.75,18.699 C104.444,18.668 103.2,18.954 103.2,20.063 C103.2,20.784 103.665,21.114 104.25,21.114 C104.984,21.114 105.524,20.634 105.689,20.109 C105.734,19.974 105.75,19.824 105.75,19.704 L105.75,18.699 L105.75,18.699 Z" id="Fill-9" fill="#FFFEFD" sketch:type="MSShapeGroup"></path>
            <path d="M109.44,22.269 C109.47,21.773 109.5,20.963 109.5,20.214 L109.5,11.619 L111.345,11.619 L111.345,15.969 L111.375,15.969 C111.825,15.264 112.62,14.799 113.714,14.799 C115.5,14.799 116.774,16.284 116.759,18.504 C116.759,21.128 115.095,22.434 113.444,22.434 C112.5,22.434 111.66,22.074 111.135,21.174 L111.104,21.174 L111.015,22.269 L109.44,22.269 L109.44,22.269 Z M111.345,19.254 C111.345,19.404 111.36,19.554 111.39,19.688 C111.585,20.424 112.229,20.979 113.024,20.979 C114.18,20.979 114.884,20.049 114.884,18.579 C114.884,17.289 114.27,16.239 113.04,16.239 C112.29,16.239 111.615,16.779 111.405,17.589 C111.375,17.724 111.345,17.889 111.345,18.069 L111.345,19.254 L111.345,19.254 Z" id="Fill-10" fill="#FFFEFD" sketch:type="MSShapeGroup"></path>
            <path d="M118.274,11.619 L120.134,11.619 L120.134,22.269 L118.274,22.269 L118.274,11.619 Z" id="Fill-11" fill="#FFFEFD" sketch:type="MSShapeGroup"></path>
            <path d="M123.435,19.134 C123.479,20.454 124.515,21.023 125.685,21.023 C126.54,21.023 127.154,20.904 127.71,20.694 L127.979,21.969 C127.35,22.224 126.479,22.419 125.43,22.419 C123.06,22.419 121.665,20.963 121.665,18.729 C121.665,16.704 122.895,14.799 125.234,14.799 C127.604,14.799 128.384,16.749 128.384,18.354 C128.384,18.699 128.354,18.969 128.324,19.134 L123.435,19.134 L123.435,19.134 Z M126.645,17.844 C126.659,17.169 126.359,16.059 125.129,16.059 C123.99,16.059 123.51,17.094 123.435,17.844 L126.645,17.844 L126.645,17.844 Z" id="Fill-12" fill="#FFFEFD" sketch:type="MSShapeGroup"></path>
            <path d="M139.319,18.549 C139.319,21.233 137.429,22.434 135.569,22.434 C133.499,22.434 131.909,21.009 131.909,18.668 C131.909,16.269 133.484,14.799 135.689,14.799 C137.864,14.799 139.319,16.329 139.319,18.549 L139.319,18.549 Z M133.814,18.624 C133.814,20.034 134.504,21.099 135.629,21.099 C136.679,21.099 137.414,20.063 137.414,18.594 C137.414,17.454 136.904,16.149 135.644,16.149 C134.339,16.149 133.814,17.409 133.814,18.624 L133.814,18.624 Z" id="Fill-13" fill="#FFFEFD" sketch:type="MSShapeGroup"></path>
            <path d="M140.834,17.139 C140.834,16.299 140.819,15.594 140.774,14.964 L142.394,14.964 L142.484,16.059 L142.529,16.059 C142.844,15.489 143.639,14.799 144.854,14.799 C146.129,14.799 147.449,15.624 147.449,17.934 L147.449,22.269 L145.604,22.269 L145.604,18.144 C145.604,17.094 145.214,16.299 144.209,16.299 C143.474,16.299 142.964,16.824 142.769,17.379 C142.709,17.544 142.694,17.769 142.694,17.979 L142.694,22.269 L140.834,22.269 L140.834,17.139" id="Fill-14" fill="#FFFEFD" sketch:type="MSShapeGroup"></path>
            <path d="M72.473,29.419 C72.473,30.501 71.683,31.349 70.425,31.349 C69.226,31.349 68.435,30.501 68.435,29.419 C68.435,28.307 69.255,27.459 70.454,27.459 C71.683,27.459 72.443,28.307 72.473,29.419 L72.473,29.419 Z M68.641,33.397 L72.268,33.397 L72.268,47.642 L68.641,47.642 L68.641,33.397 Z" id="Fill-15" fill="#FFFEFD" sketch:type="MSShapeGroup"></path>
            <path d="M80.049,30.94 L74.433,30.94 L74.433,27.927 L89.322,27.927 L89.322,30.94 L83.647,30.94 L83.647,47.642 L80.049,47.642 L80.049,30.94" id="Fill-16" fill="#FFFEFD" sketch:type="MSShapeGroup"></path>
            <path d="M102.78,43.372 C102.78,45.068 102.838,46.472 102.897,47.642 L99.738,47.642 L99.562,45.478 L99.503,45.478 C98.889,46.502 97.485,47.964 94.94,47.964 C92.337,47.964 89.968,46.414 89.968,41.763 L89.968,33.397 L93.565,33.397 L93.565,41.148 C93.565,43.518 94.326,45.039 96.227,45.039 C97.661,45.039 98.597,44.015 98.977,43.108 C99.094,42.787 99.182,42.406 99.182,41.997 L99.182,33.397 L102.78,33.397 L102.78,43.372" id="Fill-17" fill="#FFFEFD" sketch:type="MSShapeGroup"></path>
            <path d="M106.672,37.638 C106.672,36 106.643,34.626 106.555,33.397 L109.714,33.397 L109.89,35.532 L109.978,35.532 C110.592,34.42 112.142,33.075 114.512,33.075 C116.998,33.075 119.572,34.684 119.572,39.189 L119.572,47.642 L115.974,47.642 L115.974,39.598 C115.974,37.55 115.213,36 113.254,36 C111.82,36 110.826,37.024 110.446,38.106 C110.329,38.428 110.299,38.867 110.299,39.276 L110.299,47.642 L106.672,47.642 L106.672,37.638" id="Fill-18" fill="#FFFEFD" sketch:type="MSShapeGroup"></path>
            <path d="M125.951,41.529 C126.039,44.102 128.057,45.214 130.339,45.214 C132.006,45.214 133.205,44.98 134.288,44.571 L134.814,47.057 C133.585,47.554 131.889,47.935 129.841,47.935 C125.22,47.935 122.499,45.097 122.499,40.739 C122.499,36.79 124.898,33.075 129.461,33.075 C134.083,33.075 135.604,36.878 135.604,40.007 C135.604,40.68 135.545,41.207 135.487,41.529 L125.951,41.529 L125.951,41.529 Z M132.211,39.013 C132.24,37.697 131.655,35.532 129.256,35.532 C127.033,35.532 126.097,37.55 125.951,39.013 L132.211,39.013 L132.211,39.013 Z" id="Fill-19" fill="#FFFEFD" sketch:type="MSShapeGroup"></path>
            <path d="M138.326,44.337 C139.146,44.834 140.696,45.36 141.983,45.36 C143.562,45.36 144.264,44.717 144.264,43.781 C144.264,42.815 143.679,42.318 141.924,41.704 C139.146,40.739 137.976,39.218 138.004,37.55 C138.004,35.035 140.082,33.075 143.387,33.075 C144.966,33.075 146.341,33.484 147.16,33.923 L146.458,36.468 C145.844,36.117 144.703,35.649 143.445,35.649 C142.158,35.649 141.456,36.263 141.456,37.141 C141.456,38.048 142.129,38.486 143.942,39.13 C146.517,40.066 147.716,41.382 147.745,43.488 C147.745,46.063 145.727,47.935 141.954,47.935 C140.228,47.935 138.677,47.525 137.625,46.94 L138.326,44.337" id="Fill-20" fill="#FFFEFD" sketch:type="MSShapeGroup"></path>
        </g>
    </g>
</svg>
